static/img/device/component-power-cable-screw.svg

<svg width="31" height="45" viewBox="0 0 31 45" fill="none" xmlns="http://www.w3.org/2000/svg">
<g clip-path="url(#clip0_784_38285)">
<path d="M24.14 21.43L24.26 22.15C25.06 22.31 25.56 22.87 25.63 23.24C25.72 23.67 25.39 24.25 24.74 24.85L24.82 25.54C25.62 25.7 26.12 26.26 26.19 26.63C26.28 27.06 25.95 27.64 25.3 28.24L25.38 28.93C26.18 29.09 26.68 29.65 26.75 30.02C26.84 30.45 26.51 31.03 25.86 31.63L25.94 32.32C26.74 32.48 27.24 33.04 27.31 33.41C27.4 33.84 27.07 34.42 26.42 35.02L26.5 35.71C27.3 35.87 27.8 36.43 27.87 36.8C27.96 37.23 27.63 37.81 26.98 38.41L26.95 38.44L27.2 39.94C27.48 41.64 25.14 43.44 21.97 43.96C18.8 44.48 16 43.53 15.72 41.83L15.65 41.4C14.79 41.17 14.23 40.81 14.14 40.36C14.07 39.98 14.42 39.26 15.21 38.74L15.09 38.01C14.23 37.78 13.67 37.42 13.58 36.97C13.51 36.59 13.86 35.87 14.65 35.35L14.53 34.62C13.67 34.39 13.11 34.02 13.02 33.58C12.95 33.2 13.3 32.48 14.09 31.96L13.97 31.23C13.11 31 12.55 30.63 12.46 30.19C12.39 29.81 12.74 29.09 13.53 28.57L13.41 27.84C12.55 27.61 11.99 27.25 11.9 26.8C11.83 26.42 12.18 25.7 12.97 25.18L12.66 23.33" fill="white"/>
<path d="M24.14 21.43L24.26 22.15C25.06 22.31 25.56 22.87 25.63 23.24C25.72 23.67 25.39 24.25 24.74 24.85L24.82 25.54C25.62 25.7 26.12 26.26 26.19 26.63C26.28 27.06 25.95 27.64 25.3 28.24L25.38 28.93C26.18 29.09 26.68 29.65 26.75 30.02C26.84 30.45 26.51 31.03 25.86 31.63L25.94 32.32C26.74 32.48 27.24 33.04 27.31 33.41C27.4 33.84 27.07 34.42 26.42 35.02L26.5 35.71C27.3 35.87 27.8 36.43 27.87 36.8C27.96 37.23 27.63 37.81 26.98 38.41L26.95 38.44L27.2 39.94C27.48 41.64 25.14 43.44 21.97 43.96C18.8 44.48 16 43.53 15.72 41.83L15.65 41.4C14.79 41.17 14.23 40.81 14.14 40.36C14.07 39.98 14.42 39.26 15.21 38.74L15.09 38.01C14.23 37.78 13.67 37.42 13.58 36.97C13.51 36.59 13.86 35.87 14.65 35.35L14.53 34.62C13.67 34.39 13.11 34.02 13.02 33.58C12.95 33.2 13.3 32.48 14.09 31.96L13.97 31.23C13.11 31 12.55 30.63 12.46 30.19C12.39 29.81 12.74 29.09 13.53 28.57L13.41 27.84C12.55 27.61 11.99 27.25 11.9 26.8C11.83 26.42 12.18 25.7 12.97 25.18L12.66 23.33" stroke="black" stroke-width="0.85" stroke-linecap="round" stroke-linejoin="round"/>
<path d="M26.98 38.4C25.91 39.41 23.95 40.5 21.57 41.14C19.22 41.77 17.03 41.77 15.64 41.41" stroke="black" stroke-width="0.2" stroke-linecap="round" stroke-linejoin="round"/>
<path d="M26.57 36.13C26.75 37.02 24.37 38.6 21.28 39.42C18.18 40.24 15.45 40.06 15.28 39.17" stroke="black" stroke-width="0.2" stroke-linecap="round" stroke-linejoin="round"/>
<path d="M26.42 35.01C25.35 36.02 23.39 37.11 21.01 37.75C18.66 38.38 16.47 38.38 15.08 38.02" stroke="black" stroke-width="0.2" stroke-linecap="round" stroke-linejoin="round"/>
<path d="M26.01 32.75C26.19 33.64 23.81 35.22 20.72 36.04C17.63 36.86 14.89 36.68 14.72 35.79" stroke="black" stroke-width="0.2" stroke-linecap="round" stroke-linejoin="round"/>
<path d="M25.86 31.63C24.79 32.64 22.83 33.73 20.45 34.37C18.1 35 15.91 35 14.52 34.63" stroke="black" stroke-width="0.2" stroke-linecap="round" stroke-linejoin="round"/>
<path d="M25.45 29.36C25.63 30.25 23.25 31.83 20.16 32.65C17.07 33.47 14.33 33.29 14.16 32.4" stroke="black" stroke-width="0.2" stroke-linecap="round" stroke-linejoin="round"/>
<path d="M25.3 28.24C24.23 29.25 22.27 30.34 19.89 30.98C17.54 31.61 15.35 31.61 13.96 31.24" stroke="black" stroke-width="0.2" stroke-linecap="round" stroke-linejoin="round"/>
<path d="M24.89 25.97C25.07 26.86 22.69 28.44 19.6 29.26C16.51 30.08 13.77 29.9 13.6 29.01" stroke="black" stroke-width="0.2" stroke-linecap="round" stroke-linejoin="round"/>
<path d="M17.4581 23.5253C24.6295 22.1547 30.0313 18.8888 29.5232 16.2307C29.0152 13.5726 22.7898 12.5289 15.6184 13.8995C8.44702 15.2701 3.04528 18.536 3.5533 21.1941C4.06132 23.8522 10.2867 24.8959 17.4581 23.5253Z" fill="white"/>
<path d="M3.56001 21.2L4.71001 25.11C4.71001 25.11 17.09 30.3 29.92 20.14L29.53 16.24" fill="white"/>
<path d="M17.4527 23.6549C24.6241 22.2843 30.0258 19.0183 29.5178 16.3603C29.0098 13.7022 22.7844 12.6585 15.613 14.0291C8.44161 15.3997 3.03987 18.6656 3.54789 21.3237C4.0559 23.9818 10.2813 25.0255 17.4527 23.6549Z" fill="white" stroke="black" stroke-width="1.06" stroke-linecap="round" stroke-linejoin="round"/>
<path d="M3.54001 21.32L4.69001 25.23C4.69001 25.23 17.07 30.42 29.9 20.26L29.51 16.36" stroke="black" stroke-width="1.06" stroke-linecap="round" stroke-linejoin="round"/>
<path d="M22.75 19.58C21.68 20.59 19.72 21.68 17.34 22.32C14.99 22.95 12.8 22.95 11.41 22.59" stroke="black" stroke-width="0.2" stroke-linecap="round" stroke-linejoin="round"/>
<path d="M22.33 17.31C22.51 18.2 20.13 19.78 17.04 20.6C13.94 21.42 11.21 21.24 11.04 20.35" stroke="black" stroke-width="0.2" stroke-linecap="round" stroke-linejoin="round"/>
<path d="M4.51 19.57C3.11 17.15 2.72 14.79 3.47 12.06C4.26 9.22001 8.79 6.40001 14.59 5.40001C20.39 4.40001 25.58 5.53001 27.18 7.97001C28.34 9.73001 29.1 12.7 28.54 15.19C27.83 18.11 23.29 21.14 17.24 22.19C11.35 23.21 6.1 22.05 4.5 19.56L4.51 19.57Z" fill="white" stroke="black" stroke-width="0.79" stroke-linecap="round" stroke-linejoin="round"/>
<path d="M1.97 15.21C0.410002 12.81 1.66893e-06 10.45 0.890002 7.70998C1.83 4.84998 7.07 1.95998 13.72 0.859978C20.37 -0.240022 26.28 0.819978 28.08 3.23998C29.38 4.98998 30.2 7.93998 29.52 10.45C28.66 13.39 23.42 16.5 16.49 17.64C9.73 18.76 3.76 17.67 1.97 15.21Z" fill="white" stroke="black" stroke-width="0.85" stroke-linecap="round" stroke-linejoin="round"/>
<path d="M28.3 3.59003C28.45 3.86003 28.55 4.14003 28.6 4.44003C29.14 7.69003 23.34 11.35 15.66 12.62C7.97999 13.89 1.30999 12.29 0.779993 9.04003C0.729993 8.75003 0.739993 8.46003 0.779993 8.17003" stroke="black" stroke-width="0.2" stroke-linecap="round" stroke-linejoin="round"/>
<path d="M10.34 2.76C10.88 3.73 11.68 4.62 6.75 5.71L7.62 7.78C11.23 6.89 12.64 6.47 14.17 8.66L18.1 7.76C17.15 5.81 17.51 5.04 21.82 4.12L20.78 2.59C18.09 3.17 16.37 3.98 14.84 1.75L10.33 2.74L10.34 2.76Z" fill="#808080"/>
</g>
<defs>
<clipPath id="clip0_784_38285">
<rect width="30.44" height="44.53" fill="white"/>
</clipPath>
</defs>
</svg>

<svg xmlns="http://www.w3.org/2000/svg" width="31" height="45" fill="none" viewBox="0 0 31 45"><g clip-path="url(#a)"><path fill="#fff" d="m24.14 21.43.12.72c.8.16 1.3.72 1.37 1.09.09.43-.24 1.01-.89 1.61l.08.69c.8.16 1.3.72 1.37 1.09.09.43-.24 1.01-.89 1.61l.08.69c.8.16 1.3.72 1.37 1.09.09.43-.24 1.01-.89 1.61l.08.69c.8.16 1.3.72 1.37 1.09.09.43-.24 1.01-.89 1.61l.08.69c.8.16 1.3.72 1.37 1.09.09.43-.24 1.01-.89 1.61l-.03.03.25 1.5c.28 1.7-2.06 3.5-5.23 4.02s-5.97-.43-6.25-2.13l-.07-.43c-.86-.23-1.42-.59-1.51-1.04-.07-.38.28-1.1 1.07-1.62l-.12-.73c-.86-.23-1.42-.59-1.51-1.04-.07-.38.28-1.1 1.07-1.62l-.12-.73c-.86-.23-1.42-.6-1.51-1.04-.07-.38.28-1.1 1.07-1.62l-.12-.73c-.86-.23-1.42-.6-1.51-1.04-.07-.38.28-1.1 1.07-1.62l-.12-.73c-.86-.23-1.42-.59-1.51-1.04-.07-.38.28-1.1 1.07-1.62l-.31-1.85"/><path stroke="#000" stroke-linecap="round" stroke-linejoin="round" stroke-width=".85" d="m24.14 21.43.12.72c.8.16 1.3.72 1.37 1.09.09.43-.24 1.01-.89 1.61l.08.69c.8.16 1.3.72 1.37 1.09.09.43-.24 1.01-.89 1.61l.08.69c.8.16 1.3.72 1.37 1.09.09.43-.24 1.01-.89 1.61l.08.69c.8.16 1.3.72 1.37 1.09.09.43-.24 1.01-.89 1.61l.08.69c.8.16 1.3.72 1.37 1.09.09.43-.24 1.01-.89 1.61l-.03.03.25 1.5c.28 1.7-2.06 3.5-5.23 4.02s-5.97-.43-6.25-2.13l-.07-.43c-.86-.23-1.42-.59-1.51-1.04-.07-.38.28-1.1 1.07-1.62l-.12-.73c-.86-.23-1.42-.59-1.51-1.04-.07-.38.28-1.1 1.07-1.62l-.12-.73c-.86-.23-1.42-.6-1.51-1.04-.07-.38.28-1.1 1.07-1.62l-.12-.73c-.86-.23-1.42-.6-1.51-1.04-.07-.38.28-1.1 1.07-1.62l-.12-.73c-.86-.23-1.42-.59-1.51-1.04-.07-.38.28-1.1 1.07-1.62l-.31-1.85"/><path stroke="#000" stroke-linecap="round" stroke-linejoin="round" stroke-width=".2" d="M26.98 38.4c-1.07 1.01-3.03 2.1-5.41 2.74-2.35.63-4.54.63-5.93.27M26.57 36.13c.18.89-2.2 2.47-5.29 3.29-3.1.82-5.83.64-6-.25"/><path stroke="#000" stroke-linecap="round" stroke-linejoin="round" stroke-width=".2" d="M26.42 35.01c-1.07 1.01-3.03 2.1-5.41 2.74-2.35.63-4.54.63-5.93.27M26.01 32.75c.18.89-2.2 2.47-5.29 3.29s-5.83.64-6-.25"/><path stroke="#000" stroke-linecap="round" stroke-linejoin="round" stroke-width=".2" d="M25.86 31.63c-1.07 1.01-3.03 2.1-5.41 2.74-2.35.63-4.54.63-5.93.26M25.45 29.36c.18.89-2.2 2.47-5.29 3.29s-5.83.64-6-.25"/><path stroke="#000" stroke-linecap="round" stroke-linejoin="round" stroke-width=".2" d="M25.3 28.24c-1.07 1.01-3.03 2.1-5.41 2.74-2.35.63-4.54.63-5.93.26M24.89 25.97c.18.89-2.2 2.47-5.29 3.29s-5.83.64-6-.25"/><path fill="#fff" d="M17.458 23.525c7.172-1.37 12.573-4.636 12.065-7.294s-6.733-3.702-13.905-2.332-12.573 4.637-12.065 7.295 6.734 3.702 13.905 2.331"/><path fill="#fff" d="m3.56 21.2 1.15 3.91s12.38 5.19 25.21-4.97l-.39-3.9"/><path fill="#fff" stroke="#000" stroke-linecap="round" stroke-linejoin="round" stroke-width="1.06" d="M17.453 23.655c7.171-1.37 12.573-4.637 12.065-7.295s-6.734-3.701-13.905-2.33S3.04 18.665 3.548 21.323s6.733 3.701 13.905 2.33"/><path stroke="#000" stroke-linecap="round" stroke-linejoin="round" stroke-width="1.06" d="m3.54 21.32 1.15 3.91s12.38 5.19 25.21-4.97l-.39-3.9"/><path stroke="#000" stroke-linecap="round" stroke-linejoin="round" stroke-width=".2" d="M22.75 19.58c-1.07 1.01-3.03 2.1-5.41 2.74-2.35.63-4.54.63-5.93.27M22.33 17.31c.18.89-2.2 2.47-5.29 3.29-3.1.82-5.83.64-6-.25"/><path fill="#fff" stroke="#000" stroke-linecap="round" stroke-linejoin="round" stroke-width=".79" d="M4.51 19.57c-1.4-2.42-1.79-4.78-1.04-7.51.79-2.84 5.32-5.66 11.12-6.66s10.99.13 12.59 2.57c1.16 1.76 1.92 4.73 1.36 7.22-.71 2.92-5.25 5.95-11.3 7-5.89 1.02-11.14-.14-12.74-2.63z"/><path fill="#fff" stroke="#000" stroke-linecap="round" stroke-linejoin="round" stroke-width=".85" d="M1.97 15.21C.41 12.81 0 10.45.89 7.71 1.83 4.85 7.07 1.96 13.72.86S26.28.82 28.08 3.24c1.3 1.75 2.12 4.7 1.44 7.21-.86 2.94-6.1 6.05-13.03 7.19-6.76 1.12-12.73.03-14.52-2.43"/><path stroke="#000" stroke-linecap="round" stroke-linejoin="round" stroke-width=".2" d="M28.3 3.59c.15.27.25.55.3.85.54 3.25-5.26 6.91-12.94 8.18S1.31 12.29.78 9.04a2.8 2.8 0 0 1 0-.87"/><path fill="gray" d="M10.34 2.76c.54.97 1.34 1.86-3.59 2.95l.87 2.07c3.61-.89 5.02-1.31 6.55.88l3.93-.9c-.95-1.95-.59-2.72 3.72-3.64l-1.04-1.53c-2.69.58-4.41 1.39-5.94-.84l-4.51.99z"/></g><defs><clipPath id="a"><path fill="#fff" d="M0 0h30.44v44.53H0z"/></clipPath></defs></svg>
